X:1
T:A Little While to Wait
T:Charles Hutchinson Gabriel
T:A Little While to Wait
T:Public Domain
T:Public Domain
T:Public Domain
C:Charles Hutchinson Gabriel
Z:Public Domain
%%score 1 ( 2 3 )
L:1/8
M:4/4
K:Bb
V:1 treble 
V:2 bass 
V:3 bass 
V:1
 [DF][B,D][CE] | [DF]3 [DB] [DA][DB][Dc][DG] | [EB]2 [EA]3 [EB][EA][EG] | %3
w: 1.~A lit- tle|while to wait and watch and|won- der, And then to|
w: 2.~A lit- tle|while to climb life’s storm- y|mount- ain, And then to|
w: 3.~A lit- tle|while to say, “not mine, but|Thy way,” And then to|
 [EA]3 [EG] [EF][Ge][Fd][=E^c] | [Fd]4 z [DF][B,D][CE] | [DF]3 [DB] [Fd][DB][EA][FB] | %6
w: know the spir- it’s glad re-|lease; A lit- tle|while to bear the strife and|
w: see the vale with beau- ty|rife; A lit- tle|wait- ing by the bar- ren|
w: won- der we were not more|wise; A lit- tle|stumb- ling in the dust- y|
 [Ec]2 [EG]3 [EB][^CA][CG] | [DF][DB][CA][DB] [Fd]2 [Ec]2 | [DB]4- [DB] ||"^Refrain" [DB][CA][DB] | %10
w: thun- der, And then to|hear the har- mo- nies of|peace. *||
w: fount- ain, And then to|taste the liv- ing streams of|life. *|A lit- tle|
w: high- way, And then the|mea- dow- lands of Par- a-|dise. *||
 [Ec]4- [Ec][Ge][Fd][Ec] | [DF]4- [DF][DB][Ec][Fd] | [=Ed]2 [Ec]2 [EB]2 [EG]2 | %13
w: |||
w: while, * a lit- tle|while, * A lit- tle|while, and we shall|
w: |||
 [Ec]4- [Ec][DF][B,D][CE] | [DF]3 [DB] [Fd][DB][EA][FB] | [Ec]2 [EG]3 [EB][^CA][CG] | %16
w: |||
w: go, * To be at|home with Christ in Heav’n for-|ev- er, With all the|
w: |||
 [DF][FB][EA][DB] [Fd]2 [Ec]2 | [DB]4- [DB] |] %18
w: ||
w: saints e- ter- nal joys to|know. *|
w: ||
V:2
 z3 | (B,,F,B,)F, B,,F,B,F, | (B,,F,)(CF, F,,)F,CF, | (F,,F,C)F, F,,F,A,F, | (B,,B,,D,F, B,2) z2 | %5
w: |~ * * ~ ~ ~ ~ ~|~ * ~ * * ~ ~ ~|~ * * ~ ~ ~ ~ ~|~ * * * *|
 (B,,F,B,)F, B,,F,[C,F,][D,B,] | (E,G,)(B,G, _E,)[E,G,] E,2 | F,4 (F,,F,)(A,F,) | %8
w: ~ * * ~ ~ ~ ~ ~|A * lit- * * tle while,|lit- tle * while, *|
 (B,,G,F,D, B,,) || z3 | z [F,A,][F,A,][F,A,] [F,A,] z3 | z [B,,B,][D,B,][F,B,] [B,,B,] z3 | %12
w: lit- * * * *||tle while, and we|shall go, and we|
 z [B,,B,][B,,B,][B,,B,] [C,G,][C,G,][B,,B,][B,,B,] | %13
w: shall go. * * * * *|
 [F,A,][F,A,][F,A,][F,A,] [F,A,][B,,B,][B,,F,][B,,F,] | %14
w: |
 [B,,B,]3 [B,,F,] [B,,B,][B,,F,][C,F,][D,B,] | [=E,G,]2 [E,B,]3 [E,G,][E,B,][E,B,] | %16
w: ||
 [F,B,][F,D][F,C][F,B,] [F,B,]2 [F,,F,A,]2 | [B,,B,]4- [B,,B,] |] %18
w: ||
V:3
 x3 | B,,4 B,,4 | B,,4 F,,4 | F,,4 F,,4 | x8 | B,,4 B,,2 x2 | =E,4- x4 | x4 F,,4 | x5 || x3 | x8 | %11
w: |~ ~|~ ~|~ ~||~ ~|a|A||||
 x8 | x8 | x8 | x8 | x8 | x8 | x5 |] %18
w: |||||||

